X:1
T:Colin's Cattle  "Melody"
M:3/4
L:1/8
Q:80
C:W. MacLean
S:Retreat March
K:HP
|: {g}A3/2B/2{GdG}c2{gcd}c2 | \
{gef}e2{gcd}cB{G}A2 | \
{g}A3/2B/2{GdG}c2{gef}e2 |
{ag}a2{fg}f4 | \
{gef}e3/2d/2{gcd}c2{gef}e2 | \
{gcd}c{e}A{GdG}B2{GdG}c2 |
{ag}a3/2f/2{gef}e2{gcd}c{e}A | \
{GdG}B2{G}A4 :: \
{g}c3/2d/2{gef}e2{A}e2 |
{ag}a2{fg}f2{g}e2 | \
{g}c3/2d/2{gef}e2{gfg}f2 | \
a2{g}a4 |
A3/2B/2{GdG}c2{gBd}B2 | \
{G}A2{g}B2{GdG}c2 | \
{ag}a3/2f/2{gef}e2{gcd}c{e}A |
{GdG}B2{G}A4 :|
